communes/437.svg

<?xml version="1.0" encoding="UTF-8" standalone="no"?>
<svg
   xmlns:i="http://ns.adobe.com/AdobeIllustrator/10.0/"
   xmlns:dc="http://purl.org/dc/elements/1.1/"
   xmlns:cc="http://web.resource.org/cc/"
   xmlns:rdf="http://www.w3.org/1999/02/22-rdf-syntax-ns#"
   xmlns:svg="http://www.w3.org/2000/svg"
   xmlns="http://www.w3.org/2000/svg"
   xmlns:xlink="http://www.w3.org/1999/xlink"
   xmlns:sodipodi="http://sodipodi.sourceforge.net/DTD/sodipodi-0.dtd"
   xmlns:inkscape="http://www.inkscape.org/namespaces/inkscape"
   height="763"
   width="603"
   version="1.0"
   id="svg20"
   sodipodi:version="0.32"
   inkscape:version="0.44.1"
   sodipodi:docname="Mont Tramelan-coat of arms.svg"
   sodipodi:docbase="F:\Mis Documentos\Mis imágenes\Encyclopédie\Escudos de Suiza">
  <metadata
     id="metadata31">
    <rdf:RDF>
      <cc:Work
         rdf:about="">
        <dc:format>image/svg+xml</dc:format>
        <dc:type
           rdf:resource="http://purl.org/dc/dcmitype/StillImage" />
        <dc:date>07-AUG-2006</dc:date>
        <dc:creator>
          <cc:Agent>
            <dc:title>Jérôme BLUM (wagner51)</dc:title>
          </cc:Agent>
        </dc:creator>
        <cc:license
           rdf:resource="http://creativecommons.org/licenses/GPL/2.0/" />
        <dc:coverage />
        <dc:description>Gabarit pour le Projet:Blasons de WIkipédia</dc:description>
        <dc:subject>
          <rdf:Bag>
            <rdf:li>blason suisse modèle gabarit projet blasons</rdf:li>
          </rdf:Bag>
        </dc:subject>
        <dc:language>fr</dc:language>
        <dc:title>Gabrit d'un blason suisse</dc:title>
      </cc:Work>
      <cc:License
         rdf:about="http://creativecommons.org/licenses/GPL/2.0/">
        <cc:permits
           rdf:resource="http://web.resource.org/cc/Reproduction" />
        <cc:permits
           rdf:resource="http://web.resource.org/cc/Distribution" />
        <cc:requires
           rdf:resource="http://web.resource.org/cc/Notice" />
        <cc:permits
           rdf:resource="http://web.resource.org/cc/DerivativeWorks" />
        <cc:requires
           rdf:resource="http://web.resource.org/cc/ShareAlike" />
        <cc:requires
           rdf:resource="http://web.resource.org/cc/SourceCode" />
      </cc:License>
    </rdf:RDF>
  </metadata>
  <defs
     id="defs29">
    <linearGradient
       id="linearGradient2893">
      <stop
         style="stop-color:#ffffff;stop-opacity:0.3137255;"
         offset="0"
         id="stop2895" />
      <stop
         id="stop2897"
         offset="0.19"
         style="stop-color:#ffffff;stop-opacity:0.25098041;" />
      <stop
         style="stop-color:#6b6b6b;stop-opacity:0.1254902;"
         offset="0.60000002"
         id="stop2901" />
      <stop
         style="stop-color:#000000;stop-opacity:0.1254902;"
         offset="1"
         id="stop2899" />
    </linearGradient>
    <linearGradient
       id="linearGradient2955">
      <stop
         style="stop-color:white;stop-opacity:0;"
         offset="0"
         id="stop2965" />
      <stop
         style="stop-color:black;stop-opacity:0.64583331;"
         offset="1"
         id="stop2959" />
    </linearGradient>
    <radialGradient
       inkscape:collect="always"
       xlink:href="#linearGradient2893"
       id="radialGradient3236"
       gradientUnits="userSpaceOnUse"
       gradientTransform="matrix(1.215027,1.531577e-24,1.464684e-23,1.266667,-839.1924,-490.4894)"
       cx="858.04236"
       cy="579.93323"
       fx="858.04236"
       fy="579.93323"
       r="300" />
  </defs>
  <sodipodi:namedview
     inkscape:window-height="682"
     inkscape:window-width="1024"
     inkscape:pageshadow="2"
     inkscape:pageopacity="0.0"
     guidetolerance="10.0"
     gridtolerance="10.0"
     objecttolerance="10.0"
     borderopacity="1.0"
     bordercolor="#666666"
     pagecolor="#ffffff"
     id="base"
     inkscape:zoom="0.48874431"
     inkscape:cx="199.1742"
     inkscape:cy="343.19262"
     inkscape:window-x="-4"
     inkscape:window-y="-4"
     inkscape:current-layer="layer2"
     showgrid="true" />
  <desc
     id="desc22">Coat of Arms of Canton of Freiburg (Fribourg)</desc>
  <g
     inkscape:groupmode="layer"
     id="layer1"
     inkscape:label="Fond écu"
     sodipodi:insensitive="true">
    <path
       id="path1899"
       d="M 1.5,1.49998 L 1.5,460.3679 C 1.5,626.6785 135.81456,761.5 301.49999,761.5 C 467.18543,761.5 601.5,626.6785 601.5,460.3679 L 601.5,1.49998 L 1.5,1.49998 z "
       style="fill:#e20909;fill-opacity:1" />
  </g>
  <g
     inkscape:groupmode="layer"
     id="layer2"
     inkscape:label="Meubles"
     sodipodi:insensitive="true">
    <path
       style="fill:white;fill-opacity:1;fill-rule:evenodd;stroke:black;stroke-width:3.68426418px;stroke-linecap:butt;stroke-linejoin:miter;stroke-opacity:1"
       d="M 435.49056,1.5701277 L 601.82113,1.5701277 L 601.43661,158.10081 L 62.585147,641.32062 C 7.2952257,564.79879 -2.0607593,497.00152 2.7921309,395.69734 L 435.49056,1.5701277 z "
       id="path18126"
       sodipodi:nodetypes="cccccc" />
    <path
       style="fill:#e20909;fill-opacity:1;fill-rule:evenodd;stroke:black;stroke-width:3.95442367px;stroke-linecap:butt;stroke-linejoin:miter;stroke-opacity:1"
       d="M 459.28362,76.751567 C 398.13171,41.641073 330.39207,92.428128 378.02957,166.15232 C 403.58119,205.69618 441.36369,211.88107 466.9751,253.02279 C 484.15042,198.18269 581.13278,163.09965 569.97012,94.635118 C 558.92214,26.873965 495.2688,20.095559 459.28362,76.751567 z "
       id="path19906"
       sodipodi:nodetypes="cscsc" />
    <path
       sodipodi:nodetypes="cscsc"
       id="path20793"
       d="M 288.13677,226.59818 C 226.02069,194.4737 181.42469,239.77085 197.12492,297.67624 C 212.22122,353.35434 277.96505,360.82586 293.29806,408.64454 C 319.16944,353.31583 409.69867,319.26551 396.80104,253.26557 C 384.03591,187.94371 322.74697,170.57666 288.13677,226.59818 z "
       style="fill:#e20909;fill-opacity:1;fill-rule:evenodd;stroke:black;stroke-width:3.8969624px;stroke-linecap:butt;stroke-linejoin:miter;stroke-opacity:1" />
    <path
       style="fill:#e20909;fill-opacity:1;fill-rule:evenodd;stroke:black;stroke-width:3.7913084px;stroke-linecap:butt;stroke-linejoin:miter;stroke-opacity:1"
       d="M 111.45669,387.35139 C 49.994975,357.54581 14.208426,399.94189 28.67174,455.90619 C 44.571197,517.4275 97.697943,517.09229 120.45109,561.22192 C 145.08393,507.44163 236.88025,487.80934 222.41687,399.9864 C 211.99922,336.72953 144.66297,332.7428 111.45669,387.35139 z "
       id="path20795"
       sodipodi:nodetypes="cscsc" />
    <path
       style="opacity:1;fill:#e20909;fill-opacity:1;fill-rule:evenodd;stroke:black;stroke-width:2.79956532;stroke-miterlimit:4;stroke-dasharray:none;stroke-opacity:1"
       d="M 2.0377453,2.4439064 C -0.4104584,66.848341 4.9679588,477.09914 2.7868676,395.70764 L 70.619588,333.92071 C 128.2476,365.07395 109.43178,485.75168 120.91936,559.59709 C 130.39596,469.09498 155.63758,356.34861 101.05868,306.19459 L 226.21377,192.19431 C 316.58331,198.42303 288.45415,332.28308 293.73848,405.21957 C 303.99623,341.97769 338.58718,172.6578 256.56253,164.55047 L 369.77668,61.426872 C 510.31554,41.845294 455.5707,180.44375 466.75575,251.72544 C 477.13296,173.10012 519.78488,39.141313 404.42668,29.865151 L 434.53107,2.4439064 L 2.0377453,2.4439064 z "
       id="rect19013"
       sodipodi:nodetypes="ccccccccccccc" />
    <g
       transform="translate(1.867071,3.576279e-7)"
       id="g31937"
       style="fill:white">
      <path
         id="path4760"
         d="M 299.99992,563.34375 C 248.94294,563.34372 235.07281,609.70941 241.37499,640.59375 C 241.37499,640.59374 196.62253,601.51703 160.06266,643.75 C 137.84868,669.41096 142.34961,699.60484 155.40641,724.375 C 198.29246,748.10296 247.56847,761.625 299.99992,761.625 C 352.43131,761.625 401.70731,748.10296 444.59333,724.375 C 457.65,699.60484 462.15109,669.41095 439.93714,643.75 C 403.37971,601.51704 358.6248,640.59375 358.6248,640.59375 C 364.92949,609.7094 351.05431,563.34375 299.99992,563.34375 z "
         style="opacity:1;fill:white;fill-opacity:1;stroke:black;stroke-width:2.74999928;stroke-miterlimit:4;stroke-dasharray:none;stroke-opacity:1" />
      <path
         id="path2005"
         d="M 313.1091,761.01708 C 322.6191,750.99452 337.1871,727.80244 352.3711,675.01861 C 358.97424,642.61462 364.9089,616.59172 351.5951,591.92333"
         i:knockout="Off"
         style="opacity:1;fill:white;stroke:black;stroke-width:2.74999809;stroke-linecap:round;stroke-linejoin:round"
         sodipodi:nodetypes="ccc" />
      <path
         id="path2003"
         d="M 286.8601,761.01708 C 277.3501,750.99452 260.87346,728.31474 247.5991,675.01861 C 238.79907,639.68675 237.2572,611.46796 248.3751,591.92333"
         i:knockout="Off"
         style="opacity:1;fill:white;stroke:black;stroke-width:2.74999809;stroke-linecap:round;stroke-linejoin:round"
         sodipodi:nodetypes="csc" />
    </g>
  </g>
  <g
     inkscape:groupmode="layer"
     id="layer3"
     inkscape:label="Reflet final"
     style="display:inline"
     sodipodi:insensitive="true">
    <path
       style="fill:url(#radialGradient3236);fill-opacity:1"
       d="M 1.5,1.5 L 1.5,460.3679 C 1.5,626.67854 135.81454,761.5 301.49993,761.5 C 467.1854,761.5 601.5,626.67854 601.5,460.3679 L 601.5,1.5 L 1.5,1.5 z "
       id="path2346" />
  </g>
  <g
     inkscape:groupmode="layer"
     id="layer4"
     inkscape:label="Contour final"
     style="display:inline"
     sodipodi:insensitive="true">
    <path
       style="fill:none;fill-opacity:1;stroke:#000000;stroke-width:3;stroke-miterlimit:4;stroke-dasharray:none;stroke-opacity:1"
       d="M 1.5,1.5 L 1.5,460.36794 C 1.5,626.67854 135.81454,761.5 301.49993,761.5 C 467.1854,761.5 601.5,626.67854 601.5,460.36794 L 601.5,1.5 L 1.5,1.5 z "
       id="path3239" />
  </g>
</svg>

<?xml version="1.0" encoding="UTF-8"?>
<svg version="1.0" viewBox="0 0 603 763" xmlns="http://www.w3.org/2000/svg" xmlns:cc="http://web.resource.org/cc/" xmlns:dc="http://purl.org/dc/elements/1.1/" xmlns:rdf="http://www.w3.org/1999/02/22-rdf-syntax-ns#" xmlns:xlink="http://www.w3.org/1999/xlink">
<metadata>
<rdf:RDF>
<cc:Work rdf:about="">
<dc:format>image/svg+xml</dc:format>
<dc:type rdf:resource="http://purl.org/dc/dcmitype/StillImage"/>
<dc:date>07-AUG-2006</dc:date>
<dc:creator>
<cc:Agent>
<dc:title>Jérôme BLUM (wagner51)</dc:title>
</cc:Agent>
</dc:creator>
<cc:license rdf:resource="http://creativecommons.org/licenses/GPL/2.0/"/>
<dc:coverage/>
<dc:description>Gabarit pour le Projet:Blasons de WIkipédia</dc:description>
<dc:subject>
<rdf:Bag>
<rdf:li>blason suisse modèle gabarit projet blasons</rdf:li>
</rdf:Bag>
</dc:subject>
<dc:language>fr</dc:language>
<dc:title>Gabrit d'un blason suisse</dc:title>
</cc:Work>
<cc:License rdf:about="http://creativecommons.org/licenses/GPL/2.0/">
<cc:permits rdf:resource="http://web.resource.org/cc/Reproduction"/>
<cc:permits rdf:resource="http://web.resource.org/cc/Distribution"/>
<cc:requires rdf:resource="http://web.resource.org/cc/Notice"/>
<cc:permits rdf:resource="http://web.resource.org/cc/DerivativeWorks"/>
<cc:requires rdf:resource="http://web.resource.org/cc/ShareAlike"/>
<cc:requires rdf:resource="http://web.resource.org/cc/SourceCode"/>
</cc:License>
</rdf:RDF>
</metadata>
<defs>
<radialGradient id="a" cx="858.04" cy="579.93" r="300" gradientTransform="matrix(1.215 1.5316e-24 1.4647e-23 1.2667 -839.19 -490.49)" gradientUnits="userSpaceOnUse">
<stop stop-color="#fff" stop-opacity=".31373" offset="0"/>
<stop stop-color="#fff" stop-opacity=".25098" offset=".19"/>
<stop stop-color="#6b6b6b" stop-opacity=".12549" offset=".6"/>
<stop stop-opacity=".12549" offset="1"/>
</radialGradient>
</defs>
<desc>Coat of Arms of Canton of Freiburg (Fribourg)</desc>
<path d="m1.5 1.5v458.87c0 166.31 134.31 301.13 300 301.13 165.69 0 300-134.82 300-301.13v-458.87h-600z" fill="#e20909"/>
<g stroke="#000">
<path d="m435.49 1.5701h166.33l-0.38452 156.53-538.85 483.22c-55.29-76.522-64.646-144.32-59.793-245.62l432.7-394.13z" fill="#fff" fill-rule="evenodd" stroke-width="3.6843px"/>
<path d="m459.28 76.752c-61.152-35.11-128.89 15.677-81.254 89.401 25.552 39.544 63.334 45.729 88.946 86.87 17.175-54.84 114.16-89.923 103-158.39-11.048-67.761-74.701-74.54-110.69-17.884z" fill="#e20909" fill-rule="evenodd" stroke-width="3.9544px"/>
<path d="m288.14 226.6c-62.116-32.124-106.71 13.173-91.012 71.078 15.096 55.678 80.84 63.15 96.173 110.97 25.871-55.329 116.4-89.379 103.5-155.38-12.765-65.322-74.054-82.689-108.66-26.667z" fill="#e20909" fill-rule="evenodd" stroke-width="3.897px"/>
<path d="m111.46 387.35c-61.462-29.806-97.248 12.59-82.785 68.555 15.899 61.521 69.026 61.186 91.779 105.32 24.633-53.78 116.43-73.413 101.97-161.24-10.418-63.257-77.754-67.244-110.96-12.635z" fill="#e20909" fill-rule="evenodd" stroke-width="3.7913px"/>
<path d="m2.0377 2.4439c-2.4482 64.404 2.9302 474.66 0.74912 393.26l67.833-61.787c57.628 31.153 38.812 151.83 50.3 225.68 9.4766-90.502 34.718-203.25-19.861-253.4l125.16-114c90.37 6.2287 62.24 140.09 67.525 213.03 10.258-63.242 44.849-232.56-37.176-240.67l113.21-103.12c140.54-19.582 85.794 119.02 96.979 190.3 10.377-78.625 53.029-212.58-62.329-221.86l30.104-27.421h-432.49z" fill="#e20909" fill-rule="evenodd" stroke-width="2.7996"/>
<g transform="translate(1.8671 3.5763e-7)" fill="#fff">
<path d="m300 563.34c-51.057-3e-5 -64.927 46.366-58.625 77.25 0-1e-5 -44.752-39.077-81.312 3.1562-22.214 25.661-17.713 55.855-4.6562 80.625 42.886 23.728 92.162 37.25 144.59 37.25 52.431 0 101.71-13.522 144.59-37.25 13.057-24.77 17.558-54.964-4.6562-80.625-36.557-42.233-81.312-3.1562-81.312-3.1562 6.3047-30.884-7.5705-77.25-58.625-77.25z" stroke-width="2.75"/>
<path d="m313.11 761.02c9.51-10.023 24.078-33.215 39.262-85.998 6.6031-32.404 12.538-58.427-0.776-83.095" stroke-linecap="round" stroke-linejoin="round" stroke-width="2.75"/>
<path d="m286.86 761.02c-9.51-10.023-25.987-32.702-39.261-85.998-8.8-35.332-10.342-63.551 0.776-83.095" stroke-linecap="round" stroke-linejoin="round" stroke-width="2.75"/>
</g>
</g>
<g>
<path d="m1.5 1.5v458.87c0 166.31 134.31 301.13 300 301.13 165.69 0 300-134.82 300-301.13v-458.87h-600z" fill="url(#a)"/>
<path d="m1.5 1.5v458.87c0 166.31 134.31 301.13 300 301.13 165.69 0 300-134.82 300-301.13v-458.87h-600z" fill="none" stroke="#000" stroke-width="3"/>
</g>
</svg>
